X:1
T:Title
%%score { ( 1 4 ) | ( 2 3 ) }
L:1/8
M:4/4
K:C
V:1 treble nm="Grand Piano"
V:4 treble 
V:2 treble 
V:3 treble 
V:1
 z4 z2[Q:1/4=112] F2 | A3 G F2 A2 | d2 B2 c2 f2 | c2 c_B A2 AG | G.f.e.d .c.B._BB | A3 G F2 A2 | %6
 d2 B2 c2 d2 | e2 fe [Bd]2 [Be]d | c2 c2 d2 e2 | f8- | f2 z2 z4 | c8- |[M:1/4] c2 | %13
[M:3/4] G2 d2 c2 |[M:4/4] _B8- |[M:9/8] B3 z3 z3 |[M:4/4] A8- | A2 z2 z4 | c2 c2 d2 d2 | e6 z2 | %20
 [cf]4 (3[^ce]2 [df]2 [_Bd]2 | [Ac]6 z2 | A4 (3[FA]2 [E_B]2 [CG]2 |[M:3/4] [CF]6 |] %24
V:2
 z4 z2 [A,C]2 | [CF]3 [_B,C] [A,C]2 [CF]2 | [B,F]2 [D^G]2 [CA]2 [B,=G]2 | %3
 [A,F]2 [DF]2 [CF]2 [B,F]2 | C-[C-d][C-c][C-_B] [CA].[D^G].[E=G][CE] | [CF]3 [_B,C] [A,C]2 [CF]2 | %6
 [B,F]2 [D^G]2 [CA]2 [Ac]2 | [Gc]2 c-[Gc] F2 z G | [EG]2 z2 z4 | z2 A,2 D2 B,2 | C2 z2 z4 | %11
 z2 A,2 D2 _B,2 |[M:1/4] C2 |[M:3/4] z6 |[M:4/4] z2 C2 E2 D2 |[M:9/8] C3 z3 z3 |[M:4/4] z4 E2 ^C2 | %17
 D2 [DF]2 [^C^G]2 [CG]2 | [CA]2 [CA]2 [B,G]2 [B,G]2 | [_B,G]6 z2 | A,4 (3_B,2 B,2 E2 | %21
 (3F2 F2 F2 F2 z2 | F4 z4 |[M:3/4] A,6 |] %24
V:3
 x8 | x8 | x8 | x8 | .E2 z2 z4 | x8 | x8 | z2 .A2 z2 F2 | x8 | x8 | x8 | x8 |[M:1/4] x2 | %13
[M:3/4] x6 |[M:4/4] x8 |[M:9/8] x9 |[M:4/4] x8 | x8 | x8 | x8 | x8 | x8 | z2 C2 (3C2 C2 _B,2 | %23
[M:3/4] x6 |] %24
V:4
 x8 | x8 | x8 | x8 | x8 | x8 | x8 | x8 | x8 | z2 F2 _B2 ^G2 | A2 c2 e2 d2 | z2 F2 _B2 G2 | %12
[M:1/4] A2 |[M:3/4] x6 |[M:4/4] z2 E2 G2 F2 |[M:9/8] E3 =B2 c- c _B2 |[M:4/4] z2 F2 G2 E2 | %17
 F2 A2 B2 B2 | x8 | x8 | x8 | x8 | x8 |[M:3/4] x6 |] %24

